Costumes/O-glow.svg

<?xml version="1.0" encoding="UTF-8" standalone="no"?>
<svg
   version="1.1"
   width="58.862122"
   height="78.22422"
   id="svg8"
   sodipodi:docname="O-glow.svg"
   xmlns:inkscape="http://www.inkscape.org/namespaces/inkscape"
   xmlns:sodipodi="http://sodipodi.sourceforge.net/DTD/sodipodi-0.dtd"
   xmlns="http://www.w3.org/2000/svg"
   xmlns:svg="http://www.w3.org/2000/svg">
  <defs
     id="defs12" />
  <sodipodi:namedview
     id="namedview10"
     pagecolor="#ffffff"
     bordercolor="#000000"
     borderopacity="0.25"
     inkscape:showpageshadow="2"
     inkscape:pageopacity="0.0"
     inkscape:pagecheckerboard="0"
     inkscape:deskcolor="#d1d1d1" />
  <!-- Exported by Scratch - http://scratch.mit.edu/ -->
  <g
     id="ID0.4667737828567624"
     transform="translate(1.2163775e-4,2.1983692e-4)">
    <g
       id="ID0.5328715601935983">
      <g
         id="ID0.6646519578061998">
        <path
           id="ID0.397859675809741"
           fill="#00cccc"
           d="m 58.862,33.884 v 4.84 c 0,2.87 -0.5,6.95 -1.57,12.84 -0.44,2.74 -1.28,5.56 -2.49,8.39 -0.02,0.04 -0.04,0.07 -0.05,0.11 -2.15,4.85 -5.69,9.08 -10.53,12.57 -5.16,3.71 -10.5,5.59 -15.89,5.59 -2.18,0 -4.26,-0.34 -6.21,-1 -6.91,-2.23 -12.37,-6.47 -16.22,-12.6 -0.83,-1.35 -1.65,-3.02 -2.67,-5.46 -0.02,-0.06 -0.04,-0.11 -0.07,-0.17 -1.26,-3.16 -1.93,-5.69 -2.11,-7.97 -0.03,-0.39 -0.14,-1.33 -0.5,-3.17 -0.13,-0.69 -0.2,-1.39 -0.2,-2.09 v -4.28 c -0.44,-1.69 -0.48,-3.5 -0.05,-5.29 0.16,-0.69 0.39,-1.36 0.67,-1.98 0,-1.22 0.21,-2.44 0.61,-3.6 0.11,-0.5 0.26,-0.99 0.44,-1.48 0.01,-0.01 0.19,-0.52 0.44,-1.93 0.3,-1.73 0.86,-3.96 1.7,-6.77 0.01,-0.03 0.02,-0.07 0.03,-0.1 1.63,-5.24 4.92,-10.21 10.06,-15.19 0.04,-0.04 0.07,-0.07 0.11,-0.1 2.6,-2.46 5.6,-4.02 8.92,-4.66 0.6,-0.11 1.21,-0.17 1.83,-0.19 0.38,-0.01 1.39,-0.07 3.04,-0.16 0.06,0 0.12,-0.01 0.18,-0.01 4.87,-0.2 9.48,0.84 13.75,3.07 4.93,2.52 8.83,6.31 11.6,11.27 1.31,2.35 2.43,5.2 3.43,8.74 1.17,4.01 1.75,7.54 1.75,10.78 z" />
      </g>
    </g>
    <g
       id="ID0.9338630577549338">
      <path
         id="ID0.27022988675162196"
         fill="#ffffff"
         d="m 47.859,38.725 c 0,2.17 -0.471,5.836 -1.408,10.995 -0.293,1.877 -0.879,3.842 -1.76,5.894 -1.35,3.05 -3.65,5.748 -6.904,8.093 -3.255,2.345 -6.407,3.518 -9.456,3.518 -0.997,0 -1.906,-0.146 -2.727,-0.439 -4.457,-1.407 -7.916,-4.075 -10.379,-8.005 -0.471,-0.761 -1.086,-2.052 -1.848,-3.87 -0.821,-2.052 -1.275,-3.635 -1.363,-4.75 -0.088,-1.113 -0.308,-2.579 -0.66,-4.397 v -6.51 c 0.234,-0.116 0.117,-0.292 -0.352,-0.527 h 0.528 c 0,-0.293 0.116,-0.85 0.352,-1.671 0.233,-0.821 0.352,-1.437 0.352,-1.848 0,-0.352 -0.088,-0.674 -0.264,-0.968 0.233,0 0.439,-0.088 0.615,-0.264 -0.059,-0.117 -0.206,-0.176 -0.439,-0.176 0.058,-0.058 0.161,-0.146 0.308,-0.264 0.146,-0.117 0.249,-0.205 0.309,-0.264 -0.06,-0.059 -0.132,-0.103 -0.221,-0.133 -0.088,-0.028 -0.162,-0.072 -0.22,-0.132 0.353,-0.938 0.674,-2.228 0.968,-3.87 0.233,-1.348 0.704,-3.195 1.407,-5.541 1.056,-3.4 3.46,-6.919 7.213,-10.556 1.056,-0.996 2.199,-1.612 3.431,-1.847 0.176,0 1.319,-0.059 3.431,-0.177 2.932,-0.116 5.687,0.499 8.268,1.848 2.992,1.525 5.336,3.812 7.037,6.861 0.881,1.583 1.701,3.724 2.463,6.421 0.881,2.99 1.32,5.571 1.32,7.74 v 4.839 z m -5.805,-9.763 c -0.35,-0.82 -0.76,-1.876 -1.227,-3.167 -0.586,-2.639 -2.325,-5.071 -5.217,-7.301 -2.893,-2.228 -5.566,-3.224 -8.021,-2.99 -1.11,0.118 -2.981,1.966 -5.612,5.542 -1.286,1.701 -2.571,5.102 -3.856,10.203 -1.169,4.75 -1.725,8.415 -1.665,10.995 0.116,3.284 0.292,5.571 0.526,6.86 0.408,2.405 1.285,4.604 2.629,6.598 1.286,1.759 2.28,2.902 2.981,3.431 2.629,1.877 5.112,2.814 7.451,2.814 0.525,0 1.022,-0.058 1.49,-0.176 1.11,-0.176 2.424,-0.908 3.944,-2.199 1.286,-1.173 2.25,-2.257 2.894,-3.255 0.876,-1.465 1.695,-3.664 2.455,-6.597 1.168,-4.28 1.754,-8.825 1.754,-13.634 0.002,-2.579 -0.174,-4.954 -0.526,-7.124 z" />
    </g>
  </g>
</svg>

<svg version="1.1" width="59" height="79" xmlns="http://www.w3.org/2000/svg" xmlns:xlink="http://www.w3.org/1999/xlink">
  <!-- Exported by Scratch - http://scratch.mit.edu/ -->
  <g id="ID0.4667737828567624">
    <g id="ID0.5328715601935983">
      <g id="ID0.6646519578061998">
        <path id="ID0.397859675809741" fill="#00CCCC" d="M 58.862 33.884 L 58.862 38.724 C 58.862 41.594 58.362 45.674 57.292 51.564 C 56.852 54.304 56.012 57.124 54.802 59.954 C 54.782 59.994 54.762 60.024 54.752 60.064 C 52.602 64.914 49.062 69.144 44.222 72.634 C 39.062 76.344 33.722 78.224 28.332 78.224 C 26.152 78.224 24.072 77.884 22.122 77.224 C 15.212 74.994 9.752 70.754 5.902 64.624 C 5.072 63.274 4.252 61.604 3.232 59.164 C 3.212 59.104 3.192 59.054 3.162 58.994 C 1.902 55.834 1.232 53.304 1.052 51.024 C 1.022 50.634 0.912 49.694 0.552 47.854 C 0.422 47.164 0.352 46.464 0.352 45.764 L 0.352 41.484 C -0.088 39.794 -0.128 37.984 0.302 36.194 C 0.462 35.504 0.692 34.834 0.972 34.214 C 0.972 32.994 1.182 31.774 1.582 30.614 C 1.692 30.114 1.842 29.624 2.022 29.134 C 2.032 29.124 2.212 28.614 2.462 27.204 C 2.762 25.474 3.322 23.244 4.162 20.434 C 4.172 20.404 4.182 20.364 4.192 20.334 C 5.822 15.094 9.112 10.124 14.252 5.144 C 14.292 5.104 14.322 5.074 14.362 5.044 C 16.962 2.584 19.962 1.024 23.282 0.384 C 23.882 0.274 24.492 0.214 25.112 0.194 C 25.492 0.184 26.502 0.124 28.152 0.034 C 28.212 0.034 28.272 0.024 28.332 0.024 C 33.202 -0.176 37.812 0.864 42.082 3.094 C 47.012 5.614 50.912 9.404 53.682 14.364 C 54.992 16.714 56.112 19.564 57.112 23.104 C 58.282 27.114 58.862 30.644 58.862 33.884 Z "/>
      </g>
    </g>
    <g id="ID0.9338630577549338">
      <path id="ID0.27022988675162196" fill="#FFFFFF" d="M 47.859 38.725 C 47.859 40.895 47.388 44.561 46.451 49.720 C 46.158 51.597 45.572 53.562 44.691 55.614 C 43.341 58.664 41.041 61.362 37.787 63.707 C 34.532 66.052 31.380 67.225 28.331 67.225 C 27.334 67.225 26.425 67.079 25.604 66.786 C 21.147 65.379 17.688 62.711 15.225 58.781 C 14.754 58.020 14.139 56.729 13.377 54.911 C 12.556 52.859 12.102 51.276 12.014 50.161 C 11.926 49.048 11.706 47.582 11.354 45.764 L 11.354 39.254 C 11.588 39.138 11.471 38.962 11.002 38.727 L 11.530 38.727 C 11.530 38.434 11.646 37.877 11.882 37.056 C 12.115 36.235 12.234 35.619 12.234 35.208 C 12.234 34.856 12.146 34.534 11.970 34.240 C 12.203 34.240 12.409 34.152 12.585 33.976 C 12.526 33.859 12.379 33.800 12.146 33.800 C 12.204 33.742 12.307 33.654 12.454 33.536 C 12.600 33.419 12.703 33.331 12.763 33.272 C 12.703 33.213 12.631 33.169 12.542 33.139 C 12.454 33.111 12.380 33.067 12.322 33.007 C 12.675 32.069 12.996 30.779 13.290 29.137 C 13.523 27.789 13.994 25.942 14.697 23.596 C 15.753 20.196 18.157 16.677 21.910 13.040 C 22.966 12.044 24.109 11.428 25.341 11.193 C 25.517 11.193 26.660 11.134 28.772 11.016 C 31.704 10.900 34.459 11.515 37.040 12.864 C 40.032 14.389 42.376 16.676 44.077 19.725 C 44.958 21.308 45.778 23.449 46.540 26.146 C 47.421 29.136 47.860 31.717 47.860 33.886 L 47.860 38.725 Z M 42.054 28.962 C 41.704 28.142 41.294 27.086 40.827 25.795 C 40.241 23.156 38.502 20.724 35.610 18.494 C 32.717 16.266 30.044 15.270 27.589 15.504 C 26.479 15.622 24.608 17.470 21.977 21.046 C 20.691 22.747 19.406 26.148 18.121 31.249 C 16.952 35.999 16.396 39.664 16.456 42.244 C 16.572 45.528 16.748 47.815 16.982 49.104 C 17.390 51.509 18.267 53.708 19.611 55.702 C 20.897 57.461 21.891 58.604 22.592 59.133 C 25.221 61.010 27.704 61.947 30.043 61.947 C 30.568 61.947 31.065 61.889 31.533 61.771 C 32.643 61.595 33.957 60.863 35.477 59.572 C 36.763 58.399 37.727 57.315 38.371 56.317 C 39.247 54.852 40.066 52.653 40.826 49.720 C 41.994 45.440 42.580 40.895 42.580 36.086 C 42.582 33.507 42.406 31.132 42.054 28.962 Z "/>
    </g>
  </g>
</svg>
